X: 25
T: Saint Anne's
Z: PietroJonovich
S: https://thesession.org/tunes/103#setting49127
R: reel
M: 4/4
L: 1/8
K: Cmaj
|:c2 "C"G2c2 "C"cd|e2 "C"fed "C"cA|G2 "C"G2E2 "C"Gc|A2 "F"A2F2 "F"AA|
GA"C"GF E2 "C"cd|e2 "C"fed "C"cA|G2 "C"G2E2 "C"Gc|AF"F"Ac BG"G"Bd|c2"C"cB c2-"C"c2:|

